X:8
T:Broad Sword Hornpipe. Pn1801.08
Q:1/4=100
M:2/4
L:1/8
C:"448"
W: 1st Lady set to the 2d Gent: and turn the 3d gent :| 1st Gent:set to the 2d Lady and turn the 3d Lady -
W:lead down the middle and up again :|. Allemande :||:
B:Preston 24 for 1801
Z:Village Music Project, John Adams, 2017
K:D
A|(d/e/).d/.c/ dA|dfaf|(e/d/).e/.f/  ef|agec|(d/e/).d/.c/ dA|d2af|e/f/g ce|d3:|
|:e>fed|ceac'|b/a/b/c'/ b^g|a2e2|e>fed | ceac'|b2^g2|a3:|
